svgs/solid/file-exclamation.svg

<svg xmlns="http://www.w3.org/2000/svg" viewBox="0 0 384 512"><!-- Font Awesome Pro 6.0.0-alpha2 by @fontawesome - https://fontawesome.com License - https://fontawesome.com/license (Commercial License) --><path d="M224 128V0H48C21.492 0 0 21.492 0 48V464C0 490.508 21.492 512 48 512H336C362.508 512 384 490.508 384 464V160H256C238.328 160 224 145.672 224 128ZM168 216C168 202.75 178.75 192 192 192S216 202.75 216 216V328C216 341.25 205.25 352 192 352S168 341.25 168 328V216ZM224 416C224 433.672 209.672 448 192 448S160 433.672 160 416V415.998C160 415.82 160.102 415.674 160.102 415.498C160.375 398.947 173.246 385.814 189.523 384.5C190.383 384.43 191.125 383.998 192 383.998S193.617 384.43 194.477 384.5C210.754 385.814 223.625 398.947 223.898 415.498C223.898 415.674 224 415.82 224 415.998V416ZM256 0V128H384L256 0Z"/></svg>

<svg xmlns="http://www.w3.org/2000/svg" viewBox="0 0 384 512"><!--! Font Awesome Pro 6.0.0-alpha3 by @fontawesome - https://fontawesome.com License - https://fontawesome.com/license (Commercial License) --><path d="M224 128L224 0H48C21.49 0 0 21.49 0 48v416C0 490.5 21.49 512 48 512h288c26.51 0 48-21.49 48-48V160h-127.1C238.3 160 224 145.7 224 128zM168 216C168 202.8 178.8 192 192 192s24 10.75 24 24v112c0 13.25-10.75 24-24 24s-24-10.75-24-24V216zM224 415.1C224 433.7 209.7 448 192 448s-32-14.33-32-32c0-.1777 .1016-.3262 .1016-.502c.2734-16.55 13.14-29.68 29.42-30.1C190.4 384.4 191.1 383.1 192 383.1s1.617 .4303 2.477 .5006c16.28 1.314 29.15 14.45 29.42 30.1C223.9 415.7 224 415.8 224 415.1zM256 0v128h128L256 0z"/></svg>
